core/assets/icons/roaming.filled.svg

<svg width="24" height="24" viewBox="0 0 24 24" xmlns="http://www.w3.org/2000/svg"><g id="roaming=filled"><path id="Vector" d="M17.1242 9.41468L19.6182 20.4613L17.9256 22.1539L13.293 13.2458L8.75687 17.782L9.88582 21.7308L8.61638 23.0002L5.65436 18.3456L0.999756 15.3836L2.26919 14.1141L6.21884 15.2422L10.755 10.7061L1.84605 6.07437L3.53863 4.38178L14.5853 6.87581L19.195 2.26605C19.5317 1.92938 19.9883 1.74023 20.4645 1.74023C20.9406 1.74023 21.3972 1.92938 21.7339 2.26605C22.0706 2.60273 22.2597 3.05936 22.2597 3.53549C22.2597 4.01162 22.0706 4.46825 21.7339 4.80493L17.1242 9.41468Z"/></g></svg>

<svg xmlns="http://www.w3.org/2000/svg" width="24" height="24" fill="none"><path fill="#191C22" d="m17.124 9.415 2.494 11.046-1.692 1.693-4.633-8.908-4.536 4.536 1.129 3.949L8.616 23l-2.962-4.655L1 15.384l1.27-1.27 3.949 1.128 4.536-4.536-8.909-4.632 1.693-1.692 11.046 2.494 4.61-4.61a1.795 1.795 0 0 1 2.539 2.539l-4.61 4.61Z"/></svg>
